dist/images/icons/vk.svg

<svg width="25" height="25" viewBox="0 0 25 25" fill="none" xmlns="http://www.w3.org/2000/svg">
<path d="M0.0433758 11.7933C0.0390407 6.2592 0.0368731 3.49213 1.75474 1.77157C3.4726 0.0510175 6.23966 0.0488499 11.7737 0.0445148L12.7946 0.0437152C18.3286 0.0393801 21.0957 0.0372126 22.8163 1.75508C24.5369 3.47294 24.539 6.24 24.5434 11.7741L24.5442 12.7949C24.5485 18.329 24.5507 21.096 22.8328 22.8166C21.1149 24.5372 18.3479 24.5394 12.8138 24.5437L11.793 24.5445C6.2589 24.5488 3.49184 24.551 1.77128 22.8331C0.0506781 21.1153 0.0485105 18.3482 0.0441755 12.8141L0.0433758 11.7933Z" fill="#2787F5"/>
<path fill-rule="evenodd" clip-rule="evenodd" d="M6.67491 7.70418L4.88803 7.70557C4.37751 7.70597 4.27558 7.94637 4.27579 8.21127C4.27616 8.68448 4.8838 11.0308 7.10108 14.133C8.57935 16.2516 10.6606 17.3989 12.5536 17.3975C13.6895 17.3966 13.8298 17.1413 13.8294 16.7017L13.8282 15.0996C13.8278 14.5891 13.9353 14.4872 14.2949 14.4869C14.56 14.4867 15.0144 14.6188 16.0753 15.64C17.2878 16.8503 17.488 17.3936 18.1695 17.3931L19.9563 17.3917C20.4669 17.3913 20.7219 17.1359 20.5743 16.6323C20.4128 16.1305 19.8338 15.4027 19.0655 14.54C18.6486 14.0482 18.0235 13.5188 17.834 13.254C17.5687 12.9135 17.6443 12.762 17.8334 12.4591C17.8334 12.4591 20.008 9.39131 20.2343 8.35027C20.3476 7.97163 20.2338 7.69355 19.6934 7.69398L17.9066 7.69538C17.4523 7.69573 17.243 7.93621 17.1296 8.2012C17.1296 8.2012 16.2227 10.4163 14.9365 11.8557C14.5204 12.2724 14.3312 12.4051 14.104 12.4052C13.9904 12.4053 13.8259 12.2729 13.8256 11.8945L13.8228 8.35529C13.8225 7.90104 13.6905 7.69868 13.3118 7.69898L10.5038 7.70118C10.2199 7.7014 10.0493 7.91232 10.0495 8.11215C10.0498 8.54271 10.6935 8.64155 10.7608 9.85276L10.7629 12.4835C10.7633 13.0603 10.6592 13.165 10.432 13.1652C9.82629 13.1656 8.351 10.9425 7.4751 8.39802C7.30355 7.90351 7.1316 7.70382 6.67491 7.70418Z" fill="white"/>
</svg>

<svg xmlns="http://www.w3.org/2000/svg" width="25" height="25" fill="none"><path fill="#2787F5" d="M.043 11.793C.04 6.26.037 3.493 1.755 1.772S6.24.049 11.774.045l1.02-.001C18.33.039 21.097.037 22.817 1.755s1.723 4.485 1.727 10.02l.001 1.02c.005 5.534.007 8.301-1.711 10.022-1.718 1.72-4.485 1.722-10.02 1.727h-1.02c-5.534.005-8.301.007-10.022-1.71C.051 21.114.05 18.347.044 12.813z"/><path fill="#fff" fill-rule="evenodd" d="m6.675 7.704-1.787.002c-.51 0-.612.24-.612.505 0 .473.608 2.82 2.825 5.922 1.478 2.119 3.56 3.266 5.453 3.265 1.136-.001 1.276-.257 1.275-.696V15.1c-.001-.51.106-.613.466-.613.265 0 .72.132 1.78 1.153 1.213 1.21 1.413 1.754 2.095 1.753l1.786-.001c.51 0 .766-.256.618-.76-.161-.502-.74-1.23-1.509-2.092-.416-.492-1.042-1.021-1.231-1.286-.265-.34-.19-.492 0-.795 0 0 2.174-3.068 2.4-4.109.114-.378 0-.656-.54-.656l-1.787.001c-.455 0-.664.241-.777.506 0 0-.907 2.215-2.193 3.655-.417.416-.606.55-.833.55-.114 0-.278-.133-.278-.511l-.003-3.54c0-.454-.133-.656-.511-.656l-2.808.002c-.284 0-.455.211-.454.411 0 .43.643.53.71 1.74l.003 2.631c0 .577-.104.682-.331.682-.606 0-2.081-2.222-2.957-4.767-.171-.494-.343-.694-.8-.694" clip-rule="evenodd"/></svg>
